X: 11823
T: Ellin Polkka
R: polka
M: 2/4
K: Eminor
L:1/16
|:B2e2 e2ef|g2e2 e2ef|g2e2 e2ef|g2e2 e4|
B2e2 e2ef|g2e2 e2b2|b2a2 g2f2|e4 e4:|
|:b4 a2g2|f2e2 ^d2f2|a4 g2f2|e2^d2 e2f2|
b4 a2g2|f2e2 ^d2B2|B2^d2 f2a2|g2f2 e4:|
|:e4 d4|cBcd c2A2|d4 c4|BABc B2G2|
c2d2 c2B2|ABAG F2A2|B2A2 G2F2|1 E4 E4:|2 E4 E2D2||
|:F2B2 B2A2|GFEF G2E2|F2B2 B2A2|G4 G2E2|
F2B2 B2A2|GFEF G2A2|B2A2 G2F2|1 E4 E2D2:|2 E4 E4||

